!!!OTL: ES GRAST EIN MAEDEL HUEBSCH UND FEIN
!!!ARE: Europa, Mitteleuropa, Deutschland, Schlesien, Neisse, Korkwitz
!!!SCT: E0204
!!!YEM: Copyright 1995, estate of Helmut Schaffrath.
**kern
*ICvox
*Ivox
*M2/4
*k[b-]
*F:
{4f
=1
4f
4cc
=2
4a
8g
8f
=3
4g
4b-
=4
4a
8r}
{8f
=5
8cc
8cc
8cc
8a
=6
8dd
8cc
8dd}
{8cc
=7
8b-
8a
8b-
8g
=8
8cc
8cc
8cc}
{8b-
=9
4a
4dd
=10
4.cc}
{8a
=11
8cc
8b-
8g
8b-
=12
4a}
==
!!!AGN: erzaehlendes Volks - Lied, Todes - Ahnung; betrogene Liebe
!!!ONB: ESAC (Essen Associative Code) Database: ERK1
!!!AMT: simple duple
!!!AIN: vox
!!!EED: Helmut Schaffrath
!!!EEV: 1.0
*-
